!! George Gerswhin, "The Half of it, Dearie, Blues" from
!! "Bumper Book of George Gerswhin,"
!! London: Chappell Music Ltd., 1987; pp.102-105
**kern
*M4/4
*MM[Moderato]
=1
8.r
16d
8.e-
16d
8.f
16f
8.g
16f
=2
8.a
16a
8.b-
16a
8.cc
16b-
8.a
16g
=3
2.f
4cc
=4
2b-
2b-
=5
8.r
16d
8.e-
16d
8.f
16f
8.g
16f
=6
8.a
16a
8.b-
16a
8.cc
16b-
8.a
16g
!! page 103
=7
2.f
4ee-
=8
2dd
2dd
=9
8.r
16a
8.b-
16a
8.cc
16bn
8.b-
16a
=10
8dd
8a
8dd
[8a
2a]
=11
8dd
8a
8dd
[8a
2a]
=12
8dd
8a
8dd
[8a
2a]
=13
8.r
16d
8.e-
16d
8.f
16f
8.g
16f
=14
8.a
16a
8.b-
16a
8.cc
16b-
8.a
16g
=15
2.f
4cc
=16
2b-
2b-
!! page 104
!! Change of key
!! Refrain
=17
8r
8B-
8c
8e-
8f
8g
8b-
8cc
=18
8ee-
8cc
4b-
8g-
4f
[8e-
=19
1e-_
=20
2e-_
4e-]
4r
=21
8r
8B-
8c
8e-
8f
8g
8b-
8cc
=22
8ee-
8cc
4b-
8b-
4cc
[8g
=23
1g_
=24
2g_
4g]
4r
!! page 105
=25
8r
8e-
8a-
8b-
8cc
4.ee-
=26
8r
8cc-
8ee-
8cc-
8a-
4.f
=27
4g
8a-
[8g
8g]
8a-
4g
=28
4f
8g
[8f
8f]
8g
4f
=29
8r
8B-
8c
8e-
8f
8g
8b-
8cc
=30
8ee-
8cc
4b-
8g-
4f
[8e-
!! First ending
=31
1e-_
=32
2e-_
8e-]
8r
4r
!! Change of key
!! Repeat refrain.
!! page 104
=17
8r
8B-
8c
8e-
8f
8g
8b-
8cc
=18
8ee-
8cc
4b-
8g-
4f
[8e-
=19
1e-_
=20
2e-_
4e-]
4r
=21
8r
8B-
8c
8e-
8f
8g
8b-
8cc
=22
8ee-
8cc
4b-
8b-
4cc
[8g
=23
1g_
=24
2g_
4g]
4r
!! page 105
=25
8r
8e-
8a-
8b-
8cc
4.ee-
=26
8r
8cc-
8ee-
8cc-
8a-
4.f
=27
4g
8a-
[8g
8g]
8a-
4g
=28
4f
8g
[8f
8f]
8g
4f
=29
8r
8B-
8c
8e-
8f
8g
8b-
8cc
=30
8ee-
8cc
4b-
8g-
4f
[8e-
!! Second ending
=31
1e-_
=32
2e-_
4e-]
4r
====
*-
